img/logos/lokalise-logo/lokalise-logo.svg

<svg width="130" height="28" viewBox="0 0 130 28" fill="none" xmlns="http://www.w3.org/2000/svg">
<g clip-path="url(#clip0_1_8)">
<g clip-path="url(#clip1_1_8)">
<path d="M24.2748 17.4004H19.9835H17.1328H16.4287L12.1374 21.6911L7.84608 17.4004H7.14196H4.2913H0V21.6911H6.06839L9.10289 24.7256L12.1374 27.7601L15.1719 24.7256L18.2058 21.6911H24.2748V17.4004Z" fill="#FF6336"/>
<path d="M24.2748 8.81641H0V13.1077H24.2748V8.81641Z" fill="#FFC500"/>
<path d="M24.2748 0.234375H0V4.52568H24.2748V0.234375Z" fill="#A4A14A"/>
<path d="M33.9258 0.234375H37.7863V21.292H33.9258V0.234375Z" fill="black"/>
<path d="M43.7951 20.6922C42.576 20.0193 41.6109 19.0983 40.8997 17.9281C40.1873 16.7585 39.832 15.4711 39.832 14.0676C39.832 12.664 40.1873 11.3772 40.8997 10.207C41.6109 9.03736 42.576 8.11582 43.7951 7.44293C45.013 6.77004 46.3347 6.43359 47.7582 6.43359C49.1812 6.43359 50.5022 6.77004 51.7213 7.44293C52.9392 8.11582 53.9044 9.03678 54.6167 10.207C55.3279 11.3766 55.6844 12.664 55.6844 14.0676C55.6844 15.4711 55.3285 16.7579 54.6167 17.9281C53.9044 19.0977 52.9392 20.0193 51.7213 20.6922C50.5022 21.3651 49.1812 21.7015 47.7582 21.7015C46.3347 21.7015 45.0136 21.3651 43.7951 20.6922ZM49.791 17.6217C50.405 17.2806 50.897 16.798 51.2676 16.174C51.6376 15.55 51.8238 14.8483 51.8238 14.0681C51.8238 13.2886 51.6382 12.5868 51.2676 11.9623C50.897 11.3383 50.405 10.8557 49.791 10.5145C49.1771 10.1734 48.4989 10.0025 47.7582 10.0025C47.017 10.0025 46.34 10.1734 45.7254 10.5145C45.1114 10.8557 44.6188 11.3383 44.2482 11.9623C43.877 12.5862 43.6926 13.2886 43.6926 14.0681C43.6926 14.8483 43.877 15.55 44.2482 16.174C44.6183 16.798 45.1108 17.2806 45.7254 17.6217C46.3394 17.9629 47.0164 18.1338 47.7582 18.1338C48.4989 18.1332 49.1765 17.9629 49.791 17.6217Z" fill="black"/>
<path d="M57.7305 0.234375H61.591V12.7813L66.6212 6.84426H71.2124L65.5388 13.5419L71.6219 21.292H66.6795L61.591 14.5943V21.292H57.7305V0.234375Z" fill="black"/>
<path d="M75.2644 20.766C74.182 20.142 73.3047 19.2499 72.6324 18.0898C71.9595 16.9302 71.623 15.5891 71.623 14.0683C71.623 12.6842 71.9448 11.4068 72.5882 10.2372C73.2316 9.0676 74.109 8.14134 75.2208 7.45903C76.3321 6.77671 77.55 6.43555 78.8764 6.43555C79.8121 6.43555 80.6652 6.59169 81.4348 6.90339C82.2049 7.21509 82.7947 7.63461 83.2042 8.16079V6.84447H87.0648V21.2922H83.2042V19.9759C82.5997 20.5415 81.9562 20.9699 81.2739 21.2627C80.591 21.555 79.7137 21.7017 78.6413 21.7017C77.4723 21.7023 76.3468 21.39 75.2644 20.766ZM82.298 16.9644C83.0192 16.1848 83.3804 15.2197 83.3804 14.0689C83.3804 12.9188 83.0192 11.9536 82.298 11.1735C81.5768 10.3939 80.6211 10.0039 79.432 10.0039C78.2424 10.0039 77.2866 10.3945 76.5654 11.1735C75.8442 11.9536 75.4836 12.9188 75.4836 14.0689C75.4836 15.2197 75.8442 16.1848 76.5654 16.9644C77.2866 17.7445 78.2418 18.134 79.432 18.134C80.6211 18.134 81.5768 17.7445 82.298 16.9644Z" fill="black"/>
<path d="M89.873 0.234375H93.7337V21.292H89.873V0.234375Z" fill="black"/>
<path d="M96.7467 4.15283C96.2788 3.68499 96.0449 3.11934 96.0449 2.45647C96.0449 1.77415 96.2788 1.19435 96.7467 0.716494C97.2145 0.239224 97.7802 0 98.4431 0C99.1249 0 99.7053 0.239224 100.183 0.716494C100.66 1.19435 100.9 1.77415 100.9 2.45647C100.9 3.11934 100.661 3.68499 100.183 4.15283C99.7053 4.62068 99.1249 4.8546 98.4431 4.8546C97.7802 4.85519 97.2145 4.62068 96.7467 4.15283ZM96.5416 6.84381H100.402V21.2915H96.5416V6.84381Z" fill="black"/>
<path d="M103.035 20.2948L103.913 16.6682H104.088C105.355 17.6434 106.652 18.1306 107.978 18.1306C108.524 18.1306 108.967 18.0281 109.309 17.8237C109.65 17.6192 109.821 17.3222 109.821 16.9316C109.821 16.5221 109.62 16.1909 109.221 15.9376C108.821 15.6842 108.075 15.3725 106.984 15.0013C105.873 14.6313 105.01 14.0945 104.396 13.3927C103.782 12.6909 103.474 11.8625 103.474 10.9068C103.474 9.56159 103.976 8.47919 104.98 7.66017C105.984 6.84115 107.256 6.43164 108.797 6.43164C109.577 6.43164 110.269 6.5047 110.874 6.65083C111.478 6.79696 112.053 7.03618 112.599 7.36732L112.746 11.0523H112.541C111.839 10.6039 111.215 10.2681 110.669 10.0436C110.123 9.81967 109.509 9.70712 108.827 9.70712C108.339 9.70712 107.939 9.80494 107.628 9.99938C107.316 10.1944 107.16 10.4484 107.16 10.7601C107.16 11.1696 107.355 11.506 107.745 11.7694C108.134 12.0328 108.866 12.3498 109.938 12.7198C111.166 13.1293 112.097 13.6266 112.731 14.2117C113.365 14.7962 113.682 15.703 113.682 16.9316C113.682 17.9456 113.428 18.8135 112.921 19.5348C112.414 20.2565 111.746 20.7975 110.917 21.1581C110.089 21.5187 109.177 21.699 108.183 21.699C106.174 21.699 104.458 21.2311 103.035 20.2948Z" fill="black"/>
<path d="M119.12 20.6763C117.911 19.9939 116.961 19.063 116.269 17.8834C115.576 16.7037 115.23 15.3927 115.23 13.9497C115.23 12.5462 115.557 11.2735 116.21 10.1333C116.864 8.99258 117.771 8.09107 118.931 7.4282C120.09 6.76533 121.402 6.43359 122.864 6.43359C124.345 6.43359 125.628 6.78006 126.71 7.4718C127.791 8.16414 128.61 9.08509 129.166 10.2358C129.722 11.3866 130 12.6245 130 13.9503V15.091H118.915C119.149 16.1834 119.651 17.0119 120.421 17.577C121.192 18.1426 122.21 18.4248 123.478 18.4248C125.408 18.4248 127.094 17.7914 128.537 16.524H128.947L128.8 20.1795C127.923 20.6869 126.997 21.0669 126.022 21.3203C125.047 21.5736 124.111 21.7003 123.214 21.7003C121.694 21.6997 120.329 21.3586 119.12 20.6763ZM126.14 12.4578C126.042 11.5804 125.676 10.8928 125.043 10.3961C124.409 9.8994 123.634 9.65016 122.718 9.65016C121.821 9.65016 121.036 9.88938 120.363 10.3666C119.691 10.8445 119.237 11.5416 119.003 12.4578H126.14Z" fill="black"/>
</g>
</g>
<defs>
<clipPath id="clip0_1_8">
<rect width="130" height="28" fill="white"/>
</clipPath>
<clipPath id="clip1_1_8">
<rect width="130" height="28" fill="white"/>
</clipPath>
</defs>
</svg>

<svg xmlns="http://www.w3.org/2000/svg" fill="none" viewBox="0 0 130 28"><g clip-path="url(#a)"><g clip-path="url(#b)"><path d="M24.275 17.4h-7.846l-4.292 4.291-4.29-4.29H0v4.29h6.068l3.035 3.035 3.034 3.034 3.035-3.034 3.034-3.035h6.069v-4.29Z" fill="#FF6336"/><path d="M24.275 8.816H0v4.292h24.275V8.816Z" fill="#FFC500"/><path d="M24.275.234H0v4.292h24.275V.234Z" fill="#A4A14A"/><path d="M33.926.234h3.86v21.058h-3.86V.234Zm9.87 20.458a7.651 7.651 0 0 1-2.896-2.764 7.28 7.28 0 0 1-1.068-3.86c0-1.404.355-2.69 1.068-3.86a7.655 7.655 0 0 1 2.895-2.765 8.064 8.064 0 0 1 3.963-1.01c1.423 0 2.744.337 3.963 1.01a7.668 7.668 0 0 1 2.896 2.764 7.291 7.291 0 0 1 1.067 3.86c0 1.404-.355 2.69-1.067 3.861a7.673 7.673 0 0 1-2.896 2.764 8.068 8.068 0 0 1-3.963 1.01 8.065 8.065 0 0 1-3.963-1.01Zm5.995-3.07a3.897 3.897 0 0 0 1.477-1.448c.37-.624.556-1.326.556-2.106 0-.78-.186-1.481-.556-2.106a3.898 3.898 0 0 0-1.477-1.447 4.116 4.116 0 0 0-2.033-.513c-.74 0-1.418.171-2.033.512a3.9 3.9 0 0 0-1.477 1.448c-.37.624-.555 1.327-.555 2.106 0 .78.184 1.482.555 2.106a3.89 3.89 0 0 0 1.477 1.448c.614.34 1.29.512 2.033.512.74 0 1.418-.171 2.033-.512ZM57.73.234h3.861v12.547l5.034-5.937h4.59l-5.672 6.698 6.083 7.75H66.68l-5.09-6.698v6.698h-3.86V.234Zm17.534 20.532c-1.082-.624-1.96-1.516-2.632-2.676-.672-1.16-1.01-2.5-1.01-4.022 0-1.384.323-2.66.966-3.83A7.358 7.358 0 0 1 75.22 7.46a6.852 6.852 0 0 1 3.657-1.023c.936 0 1.79.156 2.559.467.77.312 1.36.732 1.77 1.258V6.844h3.86v14.448h-3.86v-1.316a6.686 6.686 0 0 1-1.931 1.287c-.683.292-1.56.439-2.633.439-1.17 0-2.294-.312-3.377-.936Zm7.034-3.802c.721-.78 1.082-1.744 1.082-2.895 0-1.15-.36-2.115-1.082-2.896-.721-.78-1.677-1.17-2.866-1.17-1.19 0-2.145.392-2.867 1.17-.72.78-1.081 1.746-1.081 2.896s.36 2.116 1.081 2.895c.722.78 1.677 1.17 2.867 1.17s2.145-.39 2.866-1.17ZM89.873.234h3.86v21.058h-3.86V.234Zm6.874 3.92a2.311 2.311 0 0 1-.702-1.698c0-.682.234-1.262.702-1.74A2.29 2.29 0 0 1 98.443 0c.682 0 1.262.24 1.74.716.477.478.717 1.058.717 1.74 0 .663-.24 1.229-.717 1.697a2.395 2.395 0 0 1-1.74.702 2.31 2.31 0 0 1-1.696-.702Zm-.205 2.69h3.86V21.29h-3.86V6.845Zm6.493 13.451.878-3.627h.175c1.267.975 2.564 1.463 3.89 1.463.546 0 .99-.103 1.331-.307.341-.205.512-.502.512-.892 0-.41-.2-.74-.6-.994-.4-.254-1.146-.566-2.237-.937-1.11-.37-1.974-.906-2.588-1.608-.614-.702-.922-1.53-.922-2.486 0-1.345.502-2.428 1.506-3.247s2.276-1.228 3.817-1.228c.78 0 1.472.073 2.077.22.604.145 1.18.384 1.725.715l.147 3.685h-.205c-.702-.448-1.326-.784-1.872-1.008-.546-.224-1.16-.337-1.842-.337-.488 0-.888.098-1.199.292-.312.195-.468.45-.468.761 0 .41.195.746.585 1.01.39.263 1.12.58 2.193.95 1.228.41 2.16.907 2.793 1.492.634.584.951 1.49.951 2.72 0 1.014-.254 1.882-.76 2.603a4.678 4.678 0 0 1-2.005 1.623c-.828.36-1.74.541-2.734.541-2.01 0-3.725-.468-5.148-1.404Zm16.085.381a7.54 7.54 0 0 1-2.85-2.793c-.694-1.18-1.04-2.49-1.04-3.933 0-1.404.327-2.676.98-3.817a7.185 7.185 0 0 1 2.721-2.705c1.16-.663 2.471-.994 3.933-.994 1.48 0 2.764.346 3.846 1.038a6.67 6.67 0 0 1 2.456 2.764A8.426 8.426 0 0 1 130 13.95v1.141h-11.085c.234 1.092.736 1.92 1.506 2.486.77.566 1.789.848 3.057.848 1.93 0 3.616-.634 5.06-1.9h.409l-.147 3.655c-.877.507-1.803.887-2.778 1.14a11.13 11.13 0 0 1-2.808.38c-1.52 0-2.885-.341-4.094-1.024Zm7.02-8.218c-.098-.878-.464-1.565-1.097-2.062-.634-.497-1.41-.746-2.325-.746-.897 0-1.682.24-2.355.717-.672.477-1.126 1.175-1.36 2.09h7.137Z" fill="#000"/></g></g><defs><clipPath id="a"><path d="M0 0h130v28H0z" fill="#fff"/></clipPath><clipPath id="b"><path d="M0 0h130v28H0z" fill="#fff"/></clipPath></defs></svg>
